X:5071
T:Bawdsey
M:6/8
R:Jig
L:1/8
Q:180
C:Aidan Crossey
K:G
|:BAB GED|BAB G3|BAB GED|EAB A3|
BAB GED|BAB G3|BAB cAF|AGF G3:||
|:BAB gdB|BAG AGA|BAB gdB|eaa agf|
gdd edd|Bdd Adc|BAB cAF|AGF G3:||
